images/icons/v2/video-off-solid-24.svg

<svg viewBox="0 0 24 24" xmlns="http://www.w3.org/2000/svg"><path d="m23 8.06v7.88a1 1 0 0 1 -1.42.91l-3.58-1.66v-6.38l3.58-1.66a1 1 0 0 1 1.42.91zm-2.94-5-1.06-1.06-3.65 3.65a3 3 0 0 0 -1.85-.65h-9.5a3 3 0 0 0 -3 3v8a3 3 0 0 0 1.45 2.55l-1.95 1.95 1.06 1.06 2.56-2.56 12.15-12.15zm-6.56 15.94a3 3 0 0 0 3-3v-7.26l-10.26 10.26z"/></svg>

<svg id="Export" xmlns="http://www.w3.org/2000/svg" viewBox="0 0 24 24"><title>video-off-solid-24</title><path d="M23,8.06v7.88a1,1,0,0,1-1.42.91L18,15.19V8.81l3.58-1.66A1,1,0,0,1,23,8.06Zm-2.94-5L19,2,15.35,5.65A3,3,0,0,0,13.5,5H4A3,3,0,0,0,1,8v8a3,3,0,0,0,1.45,2.55L.5,20.5l1.06,1.06L4.12,19,16.27,6.85ZM13.5,19a3,3,0,0,0,3-3V8.74L6.24,19Z"/></svg>
